X: 38254
T: St Jude's
R: reel
M: 4/4
K: Gmajor
|:GB~B2 GBdB|GB~B2 AFED|GB~B2 GBdB|1 ~c2Bc A2FD:|2 ~c2Bc AGFD||
|:~E2BE ~E2BE|~E2BE A2FD|~E2BE ~E2BE|1 ~c2Bc A2FD:|2 ~c2Bc AFED||
|:dG~G2 dG~G2|dG~G2 A2FD|1 dG~G2 dG~G2|~c2Bc AFED:|2 C2EG D2FA|c2Bc d2Bd||
|:~e2Be ~e2Be|~e2Be ffdf|~e2Be ~e2Be|1 ~f2ef d2 (3Bcd:|2 ~f2ef dABA||

